src/assets/outline/Xiaomi.svg

<?xml version="1.0" encoding="UTF-8"?>
<svg width="24" height="24" viewBox="0 0 24 24" xmlns="http://www.w3.org/2000/svg">
 <path d="m13.5 15.75c-0.41 0-0.75-0.34-0.75-0.75v-4c0-0.69-0.56-1.25-1.25-1.25h-3.25v5.25c0 0.41-0.34 0.75-0.75 0.75s-0.75-0.34-0.75-0.75v-6c0-0.41 0.34-0.75 0.75-0.75h4c1.52 0 2.75 1.23 2.75 2.75v4c0 0.41-0.34 0.75-0.75 0.75z"/>
 <path d="m10.5 15.75c-0.41 0-0.75-0.34-0.75-0.75v-3c0-0.41 0.34-0.75 0.75-0.75s0.75 0.34 0.75 0.75v3c0 0.41-0.34 0.75-0.75 0.75z"/>
 <path d="m16.5 15.75c-0.41 0-0.75-0.34-0.75-0.75v-6c0-0.41 0.34-0.75 0.75-0.75s0.75 0.34 0.75 0.75v6c0 0.41-0.34 0.75-0.75 0.75z"/>
 <path d="m12 22.75c-5.93 0-10.75-4.82-10.75-10.75s4.82-10.75 10.75-10.75 10.75 4.82 10.75 10.75-4.82 10.75-10.75 10.75zm0-20c-5.1 0-9.25 4.15-9.25 9.25s4.15 9.25 9.25 9.25 9.25-4.15 9.25-9.25-4.15-9.25-9.25-9.25z"/>
</svg>

<svg width="24" height="24" viewBox="0 0 24 24"  xmlns="http://www.w3.org/2000/svg">
<path d="M13.5 15.75C13.09 15.75 12.75 15.41 12.75 15V11C12.75 10.31 12.19 9.75 11.5 9.75H8.25V15C8.25 15.41 7.91 15.75 7.5 15.75C7.09 15.75 6.75 15.41 6.75 15V9C6.75 8.59 7.09 8.25 7.5 8.25H11.5C13.02 8.25 14.25 9.48 14.25 11V15C14.25 15.41 13.91 15.75 13.5 15.75Z" />
<path d="M10.5 15.75C10.09 15.75 9.75 15.41 9.75 15V12C9.75 11.59 10.09 11.25 10.5 11.25C10.91 11.25 11.25 11.59 11.25 12V15C11.25 15.41 10.91 15.75 10.5 15.75Z" />
<path d="M16.5 15.75C16.09 15.75 15.75 15.41 15.75 15V9C15.75 8.59 16.09 8.25 16.5 8.25C16.91 8.25 17.25 8.59 17.25 9V15C17.25 15.41 16.91 15.75 16.5 15.75Z" />
<path d="M12 22.75C6.07 22.75 1.25 17.93 1.25 12C1.25 6.07 6.07 1.25 12 1.25C17.93 1.25 22.75 6.07 22.75 12C22.75 17.93 17.93 22.75 12 22.75ZM12 2.75C6.9 2.75 2.75 6.9 2.75 12C2.75 17.1 6.9 21.25 12 21.25C17.1 21.25 21.25 17.1 21.25 12C21.25 6.9 17.1 2.75 12 2.75Z" />
</svg>
